X:1
T:St. Margaret (Booth), 77.77.77
T:St. Margaret (Booth), 77.77.77
T:George Booth, 1889
T:Public Domain Courtesy of the Cyber Hymnal™
C:George Booth, 1889
Z:Public Domain
Z:Courtesy of the Cyber Hymnal™
%%score ( 1 2 ) ( 3 4 )
L:1/8
Q:1/4=125
M:3/4
K:Ab
V:1 treble 
V:2 treble 
V:3 bass 
V:4 bass 
V:1
 E4 [EA]2 | [Ec]4 [EA]2 | G2 A2 [GB]2 | [EA]6 | [DF]4 [Fd]2 | [Ec]4 [EA]2 | [=Dc]4 [DB]2 | [EB]6 | %8
 [CE]4 [CA]2 | [Ec]4 [EA]2 | [Fd]4 [Fd]2 | [=Ec]6 | [Ec]4 [EB]2 | d4 [Ec]2 | [Ec]4 [DB]2 | [CA]6 | %16
 [Ec]4 [_Ge]2 | [Fd]4 [Ec]2 | [EB]4 [Ed]2 | [Ec]6 | [Ec]2 [DB]2 [CA]2 | [DB]4 E2 | [DB]4 [Ec]2 | %23
 [CA]6 |] %24
V:2
 E4 x2 | x6 | E4 x2 | x6 | x6 | x6 | x6 | x6 | x6 | x6 | x6 | x6 | x6 | F2 E2 x2 | x6 | x6 | x6 | %17
 x6 | x6 | x6 | x6 | x4 E2 | x6 | x6 |] %24
V:3
 [A,,C]4 [A,,C]2 | [A,,A,]4 [C,A,]2 | B,2 C2 [E,D]2 | [A,,C]6 | [D,A,]4 [D,A,]2 | %5
 [A,,A,]4 [C,A,]2 | [B,,A,]4 [B,,A,]2 | [E,G,]6 | A,4 A,2 | [A,,A,]4 [C,A,]2 | [B,,A,]4 [B,,A,]2 | %11
 [C,G,]6 | A,4 [G,B,]2 | [F,A,]2 [G,B,]2 A,2 | [E,A,]4 [E,G,]2 | [A,,A,]6 | [A,,A,]4 [C,A,]2 | %17
 [D,A,]4 A,2 | [E,G,]4 [G,B,]2 | A,6 | [A,,A,]4 [A,,A,]2 | [E,G,]4 [E,G,]2 | [E,G,]4 [E,G,]2 | %23
 [A,,A,]6 |] %24
V:4
 x6 | x6 | E,4 x2 | x6 | x6 | x6 | x6 | x6 | A,4 A,2 | x6 | x6 | x6 | A,4 x2 | x4 A,2 | x6 | x6 | %16
 x6 | x4 A,2 | x6 | A,6 | x6 | x6 | x6 | x6 |] %24

